X: 1
T: Monster Cafe 1(final)
R: bourrée
M: 2/4
L: 1/8
K: Gdor
GB/c/|: dc BA | ^FD F A/B/ | cG B/G/B/d/ | fe dA | 
dc BA | ^FD F /A/B/ | cB AG  |1 cB A B/c/ :|2 cB AG |
K: Gmin 
|: d2 d2 | d c2 d | f d2 f | d3 c/d/ | 
ed cB | A3 d/c/ |1 BA GA  | G/D/G/A/ B/A/B/c/ :| | B/c/B/A/ GA | G4 ||

